rospo-light/16x16/actions/distribute-horizontal-baseline.svg

<svg height="16" viewBox="0 0 16 16" width="16" xmlns="http://www.w3.org/2000/svg"><path d="m1 2v12h2v-12zm4 1v2h5.996094c.42786 0 .998047.61414.998047 1v1h-4.9960941c-.91862 0-1.7340469.38396-2.2480469.96875-.51404.58479-.75639 1.31065-.75 2.03125.006.72062.26929 1.45275.78125 2.03125.51196.57854 1.3090969.96875 2.2167969.96875h6.9960941v-.84375c.0156-.09375 0-.15625 0-.15625v-6c0-1.6343-1.319047-3-2.998047-3zm1.9980469 6h4.9960941v2h-4.9960941c-.39759 0-.5650669-.10979-.7167969-.28125s-.27877-.43937-.28125-.71875c-.002-.27938.10478-.55354.25-.71875.14523-.16521.3259869-.28125.7480469-.28125z" fill="#5c616c"/></svg>

<?xml version="1.0" encoding="UTF-8" standalone="no"?>
<svg xmlns="http://www.w3.org/2000/svg" width="22" height="22" viewBox="0 0 22 22">
 <defs>
  <style type="text/css" id="current-color-scheme">
   .ColorScheme-Text { color:#5c616c; } .ColorScheme-Highlight { color:#5294e2; }
  </style>
 </defs>
 <path style="fill:currentColor;opacity:1" class="ColorScheme-Text" transform="translate(3 3)" d="M 1 2 L 1 14 L 3 14 L 3 2 L 1 2 z M 5 3 L 5 5 L 10.996094 5 C 11.423954 5 11.994141 5.61414 11.994141 6 L 11.994141 7 L 6.9980469 7 C 6.0794269 7 5.264 7.38396 4.75 7.96875 C 4.23596 8.55354 3.99361 9.2794 4 10 C 4.006 10.72062 4.26929 11.45275 4.78125 12.03125 C 5.29321 12.60979 6.0903469 13 6.9980469 13 L 13.994141 13 L 13.994141 12.15625 C 14.009741 12.0625 13.994141 12 13.994141 12 L 13.994141 6 C 13.994141 4.3657 12.675094 3 10.996094 3 L 5 3 z M 6.9980469 9 L 11.994141 9 L 11.994141 11 L 6.9980469 11 C 6.6004569 11 6.43298 10.89021 6.28125 10.71875 C 6.12952 10.54729 6.00248 10.27938 6 10 C 5.998 9.72062 6.10478 9.44646 6.25 9.28125 C 6.39523 9.11604 6.5759869 9 6.9980469 9 z"/>
</svg>
